X:1
T:In diesen heil’gen Hallen
T:W.A.Mozart
T:(Aria from “Die Zauberflöte”)
%%score 1 { ( 2 4 ) | ( 3 5 ) }
L:1/8
Q:1/4=45
M:2/4
K:E
V:1 bass nm="Bass"
V:2 treble nm="Piano"
V:4 treble 
V:3 bass 
V:5 bass 
V:1
"^Larghetto" z/ | z4 | z2 z B, |: B,3/2 B,/ B,/C/ A,/F,/ | E,>F, D, B,, | %5
w: ||In|die- sen heil’- * gen _|Hal- * len kennt|
w: ||(In)|die- sen heil’- * gen _|Mau- * ern, wo|
 E,3/2 F,/4E,/4 D,/E,/ F,/G,/ | G,F, z B, | B,3/2 B,/ ^B,/C/ A,/F,/ | E,>F, D, F, | %9
w: man die _ Ra- * che _|nicht, _ und|ist der Mensch _ ge- *|fal- * len, führt|
w: Mensch den _ Men- * schen _|liebt, _ kann|kein Ver- rä- * ter _|lau- * ern, weil|
 G,/B, G,/4E,/4 D,/F, E,/4C,/4 | B,,2 z2 | z2 z/ B,,/ C,/ D,/ | %12
w: Lie- * be _ ihn _ zur _|Pflicht.|Dann wan- delt|
w: man _ dem _ Feind _ “ver- *|gibt”.|Wen sol- che|
 E,/F,/ G,/A,/ B,/C/4B,/4A,/4G,/4 F,/4E,/4 | G,F, z/ B,,/ C,/ D,/ | %14
w: er _ an _ Freun- * * * * des _|Hand _ ver- gnügt und|
w: Leh- * ren _ nicht _ _ _ _ er- *|freu’n, _ ver- die- net|
 E,/F,/ G,/A,/ B,/C/4B,/4A,/4G,/4 F,/4E,/4 | G,F, z/ F,/ G,/ A,/ | B,3/2 G,/ E, F,/G,/ | %17
w: froh _ ins _ bes- * * * * s’re _|Land, _ dann wan- delt|er an Freun- des _|
w: nicht _ ein _ Mensch _ _ _ _ zu _|sein, _ wen sol- che|Leh- ren nicht er- *|
 B,A, z/ F,/ F,/ F,/ | G, F,/4G,/4A,/4F,/4 E, F, | F,G, z/ E,/ B,,/ A,,/ | G,,3/2 G,,/ C,3/2 C,/ | %21
w: Hand _ ver- gnügt und|froh ins _ _ _ bes- s’re|Land, _ dann wan- delt|er an Freun- des|
w: freu’n, _ ver- die- net|nicht ein _ _ _ Mensch zu|sein, _ wen sol- che|Leh- ren nicht er-|
 F,,2 z/ B,,/ B,,/ B,,/ | E, A,, B,, B,, | E,2 G,,2 | F,,2 A,, C, | C, B,,2 C,/D,/ | E,2 z2 | z4 |1 %28
w: Hand ver- gnügt und|froh ins bes- s’re|Land, ins|bes- s’re, ins|bes- * s’re _|Land.||
w: freu’n, ver- die- net|nicht ein Mensch zu|sein, ein|Mensch, _ ein|Mensch _ zu _|sein.||
 z2 z B, :|2 z4 |] %30
w: In||
w: ||
V:2
 [GB]/ | [GB]>[EG] [CF]>[FA] | [A,D][G,E] z2 |: [EGB]2 [CFA]2 | [B,EG]2 [B,DF]D | %5
 E3/2F/4E/4 D/E/F/G/ | [EG][DF]/[B,D]/ [CE]/[DF]/[EG]/[FA]/ | [EGB]2 [CFA]2 | [B,EG]2 [B,DF] z | %9
 z [CE] [B,D][^A,C] | B,/ bg/4e/4 d/fe/4c/4 | B2 z/ B/c/d/ | e/f/g/a/ b/c'/d'/e'/ | %13
 e'd' z/ B/c/[Bd]/ | [Be]/[df]/[eg]/[fa]/ [gb]/c'/d'/e'/ | e'd' z/ F/[EG]/[DA]/ | z [EB] z [EG] | %17
 z [CEA] z [B,DA] | [B,EG][CFA] [B,EG][B,DF] | [DF][EG] z/ [Ee]/[Gg]/[Aa]/ | %20
 [Bb]>[Gg] [Ee]3/2[Ff]/4[Gg]/4 | [Bb][Aa] z/ [Ff]/[Ff]/[Ff]/ | %22
 [Gg][Ff]/4[Gg]/4[Aa]/4[Ff]/4 [Ee][Dd] | [Ee][G,E] z [G,E] | z [CF] z [CFA] | %25
 z [EG]/[EG]/ [FA]/[FA]/[A,DF]/[A,DF]/ | [G,E] z/ e/ d/a/f/d/ | e z/ G/ F/c/[DB]/D/ |1 %28
 [A,DF]2 [G,E] z :|2 [A,DF]2 [G,E] z |] %30
V:3
 z/ | [E,B,] z [A,,A,] z | [B,,F,][E,,E,] z2 |: E,2 A,,2 | B,,2- B,, z | %5
 z [G,B,] [F,A,]/[E,G,]/[D,F,]/[C,E,]/ | B,,2 z2 | E,2 A,,2 | B,,2- B,, z | z [E,G,] F,[F,,E,] | %10
 [B,,D,][K:treble][Ec] [FB][F^A] |[K:bass] B,/B,/B,/B,/ [A,B,]/[A,B,]/[A,B,]/[A,B,]/ | %12
 [G,B,]/[G,B,]/[G,B,]/[G,B,]/ [G,B,]/[E,B,]/[F,B,]/[G,B,]/ | %13
 [A,B,]/[G,B,]/[F,B,]/[E,B,]/ [D,B,]/[C,A,]/[B,,G,]/[A,,F,]/ | %14
 [G,,E,]/B,/B,/B,/ B,/[E,B,]/[F,B,]/[G,B,]/ | %15
 [A,B,]/[G,B,]/[F,B,]/[E,B,]/ [D,B,]/[C,A,]/[B,,G,]/[A,,F,]/ | [G,,E,] z C, z | F,, z B,, z | %18
 E,A,, B,,B,, | [E,B,]2 z2 | z [B,,E,] z [E,G,] | z [C,F,] z [D,F,] | %22
 [E,,E,][A,,C,F,] [B,,E,G,][B,,F,A,] | E, z C, z | A,, z A,, z | B,, z B,, z | %26
 E,2[K:treble] [B,FA]2 | [CEG][K:bass][G,B,E] [A,CE][B,,F,A,] |1 B,,2 E, z :|2 B,,2 E, z |] %30
V:4
 x/ | x4 | x4 |: x4 | x4 | x2 B,>E | x4 | x4 | x4 | x4 | x4 | x4 | x4 | f/>g/a x2 | x4 | %15
 f/>g/a x2 | x4 | x4 | x4 | x4 | x4 | x4 | x4 | x4 | x4 | x4 | x4 | x4 |1 x4 :|2 x4 |] %30
V:5
 x/ | x4 | x4 |: x4 | x4 | x4 | x4 | x4 | x4 | x4 | x[K:treble] x3 |[K:bass] x4 | x4 | x4 | x4 | %15
 x4 | x4 | x4 | x4 | x4 | G,, z C, z | F,, z B,, z | x4 | x4 | x4 | x4 | x2[K:treble] x2 | %27
 x[K:bass] x3 |1 x4 :|2 x4 |] %30

